X: 716
T: Riben qiangdao zhen kehen
%%abc-version 2.0
%%abcx-abcm2ps-target-version 5.9.1 (29 Sep 2008)
%%abc-creator hum2abc beta
%%abcx-conversion-date 2013/10/02 07:52:30
%%abc-edited-by Helmut Schaffrath
%%humdrum-veritas 1087918852
%%humdrum-veritas-data 277365536
%%continueall 1
%%barnumbers 0
L: 1/8
M: 2/4
K: F
B dc2 [I:setbarnb 1]| 
B dc2 | 
d c B A | 
c2G c | 
z f d f | 
c> f A G | 
FG2D | 
C4 | 
c> c G A | 
F DC2 | 
c c G A | 
D FC2 | 
D> F D3/ F/ | 
AG3 | 
G> A c c | 
d f d c | 
c2c A | 
G FC2 |]  



